src/actions/symbolic/chat-message-new-symbolic.svg

<svg width="16" height="17" version="1.1" xmlns="http://www.w3.org/2000/svg">
 <path d="m12.5 0a3.5 3.5 0 0 0-3.5 3.5 3.5 3.5 0 0 0 3.5 3.5 3.5 3.5 0 0 0 3.5-3.5 3.5 3.5 0 0 0-3.5-3.5zm-0.5 1h1v2h2v1h-2v2h-1v-2h-2v-1h2v-2z" fill="#363636" stroke-linecap="round" stroke-linejoin="round" stroke-width="2.3333" style="paint-order:stroke fill markers"/>
 <path class="ColorScheme-Text" d="m2 1c-1.108 0-2 0.892-2 2v8c0 1.108 0.892 2 2 2h1.5215l2.4785 3 2-3h6c1.108 0 2-0.892 2-2v-4.6855a4.5 4.5 0 0 1-1 0.92188v3.7637c0 0.554-0.446 1-1 1h-6.4336l-1.5664 2.4004-1.9668-2.4004h-2.0332c-0.554 0-1-0.446-1-1v-8c0-0.554 0.446-1 1-1h6.2676a4.5 4.5 0 0 1 0.49609-1h-6.7637z" fill="#363636"/>
</svg>

<svg xmlns="http://www.w3.org/2000/svg" width="16" height="17">
    <path fill="#050505" fill-opacity=".7" d="M12.5 0A3.5 3.5 0 0 0 9 3.5 3.5 3.5 0 0 0 12.5 7 3.5 3.5 0 0 0 16 3.5 3.5 3.5 0 0 0 12.5 0zM12 1h1v2h2v1h-2v2h-1V4h-2V3h2V1z" style="paint-order:stroke fill markers"/>
    <path fill="#050505" fill-opacity=".7" d="M2 1C.892 1 0 1.892 0 3v8c0 1.108.892 2 2 2h1.522L6 16l2-3h6c1.108 0 2-.892 2-2V6.315a4.5 4.5 0 0 1-1 .921V11c0 .554-.446 1-1 1H7.566L6 14.4 4.033 12H2c-.554 0-1-.446-1-1V3c0-.554.446-1 1-1h6.268a4.5 4.5 0 0 1 .496-1H2z" class="ColorScheme-Text"/>
</svg>
